X: 468
T: Polka du Pe Faulon
C:trad.
B: good tune book
B: tunes
M:2/4
L:1/8
Q: 1/4=120
K:C
V:1 
eg ce|ed/2e/2 fd|df Bd|dc/2d/2ec|eg ce|ed/2e/2 fd|df Bd|ce c2:|
|:Ge e>d|cBA2|fdBd|c/2B/2c/2d/2 ec|Ge e>d|cBA2|fdBG|edc2:||
% abcbook-tune_id 63ce6af38481204a882eea8f
% abcbook-tune_composer_id 
% abcbook-link-0 https://www.youtube.com/watch?v=ItQHwNH51hk
% abcbook-boost 0
% abcbook-difficulty 0
% abcbook-tags good tune book
% abcbook-tablature 
% abcbook-transpose 
% abcbook-tuning 
% abcbook-lastupdated 1675478196339
% abcbook-soundfonts 
% abcbook-repeats 1
% Titles One title
% Transcriptions Only 1 transcription
% Mode major
% Key C
% Time_signature 2/4
% Has_accompaniment_chords No chords

